src/symbols/other-symbol/2705.svg

<svg id="emoji" viewBox="0 0 72 72" xmlns="http://www.w3.org/2000/svg">
  <g id="grid">
    <path fill="#b3b3b3" d="M68,4V68H4V4H68m4-4H0V72H72V0Z"/>
    <path fill="none" stroke="#00a5ff" stroke-miterlimit="10" stroke-width="0.1" d="M12.923,10.9583H59.0769A1.9231,1.9231,0,0,1,61,12.8814V59.0352a1.9231,1.9231,0,0,1-1.9231,1.9231H12.9231A1.9231,1.9231,0,0,1,11,59.0352V12.8813A1.923,1.923,0,0,1,12.923,10.9583Z"/>
    <rect x="16" y="4" rx="2.2537" width="40" height="64" fill="none" stroke="#00a5ff" stroke-miterlimit="10" stroke-width="0.1"/>
    <rect x="16" y="4" rx="2.2537" width="40" height="64" transform="translate(72) rotate(90)" fill="none" stroke="#00a5ff" stroke-miterlimit="10" stroke-width="0.1"/>
    <circle cx="36" cy="36" r="29" fill="none" stroke="#00a5ff" stroke-miterlimit="10" stroke-width="0.1"/>
  </g>
  <g id="color">
    <path fill="#B1CC33" stroke="none" d="M53.1887,52.843H20.5794c-0.3752,0-0.6794-0.2955-0.6794-0.66v-31.68c0-0.3645,0.3042-0.66,0.6794-0.66 h21.5062h1.2918h2.0097h6.6745h1.1271c0.3752,0,0.6794,0.2955,0.6794,0.66v31.68C53.8681,52.5475,53.5639,52.843,53.1887,52.843z"/>
    <path fill="#FFFFFF" stroke="none" stroke-linecap="round" stroke-linejoin="round" stroke-miterlimit="10" stroke-width="2" d="M30.66,30.538c-1.85-2.61-6.18-0.11-4.32,2.52c3.19,4.51,5.87,9.25,7.91,14.38c0.84,2.09,4.23,2.65,4.83,0 c2.83-12.6,8.21-27.17,20.68-33c2.91-1.36,0.38-5.67-2.52-4.32c-11.43,5.35-17.68,17.36-21.23,29.25 C34.45,36.318,32.68,33.378,30.66,30.538z"/>
    <path fill="none" stroke="#d22f27" stroke-linecap="round" stroke-linejoin="round" stroke-miterlimit="10" stroke-width="2" d="M47.6549,25.4633"/>
  </g>
  <g id="hair"/>
  <g id="skin"/>
  <g id="skin-shadow"/>
  <g id="line">
    <path fill="none" stroke="#000000" stroke-linecap="round" stroke-linejoin="round" stroke-miterlimit="10" stroke-width="2" d="M53,22.642v30.476c0,0.3645-0.2955,0.66-0.66,0.66H20.66c-0.3645,0-0.66-0.2955-0.66-0.66v-31.68c0-0.3645,0.2955-0.66,0.66-0.66 h20.0814h0.5672"/>
    <path fill="none" stroke="#000000" stroke-linecap="round" stroke-linejoin="round" stroke-miterlimit="10" stroke-width="2" d="M30.66,30.538c-1.85-2.61-6.18-0.11-4.32,2.52c3.19,4.51,5.87,9.25,7.91,14.38c0.84,2.09,4.23,2.65,4.83,0 c2.83-12.6,8.21-27.17,20.68-33c2.91-1.36,0.38-5.67-2.52-4.32c-11.43,5.35-17.68,17.36-21.23,29.25 C34.45,36.318,32.68,33.378,30.66,30.538z"/>
  </g>
</svg>

<svg viewBox="0 0 72 72" xmlns="http://www.w3.org/2000/svg"><path fill="#b3b3b3" d="M68 4v64H4V4h64m4-4H0v72h72V0z"/><path fill="none" stroke="#00a5ff" stroke-miterlimit="10" stroke-width=".1" d="M12.923 10.958h46.154A1.923 1.923 0 0161 12.881v46.154a1.923 1.923 0 01-1.923 1.923H12.923A1.923 1.923 0 0111 59.035V12.881a1.923 1.923 0 011.923-1.923z"/><rect x="16" y="4" rx="2.254" width="40" height="64" fill="none" stroke="#00a5ff" stroke-miterlimit="10" stroke-width=".1"/><rect x="16" y="4" rx="2.254" width="40" height="64" transform="rotate(90 36 36)" fill="none" stroke="#00a5ff" stroke-miterlimit="10" stroke-width=".1"/><circle cx="36" cy="36" r="29" fill="none" stroke="#00a5ff" stroke-miterlimit="10" stroke-width=".1"/><g stroke-linecap="round" stroke-miterlimit="10" stroke-width="6" stroke="#fff" fill="none" stroke-linejoin="round"><path d="M53 22.642v30.476a.66.66 0 01-.66.66H20.66a.66.66 0 01-.66-.66v-31.68a.66.66 0 01.66-.66h20.649"/><path d="M30.66 30.538c-1.85-2.61-6.18-.11-4.32 2.52 3.19 4.51 5.87 9.25 7.91 14.38.84 2.09 4.23 2.65 4.83 0 2.83-12.6 8.21-27.17 20.68-33 2.91-1.36.38-5.67-2.52-4.32-11.43 5.35-17.68 17.36-21.23 29.25a70.837 70.837 0 00-5.35-8.83z"/></g><path fill="#B1CC33" d="M53.189 52.843h-32.61a.67.67 0 01-.679-.66v-31.68a.67.67 0 01.68-.66h32.609a.67.67 0 01.68.66v31.68a.67.67 0 01-.68.66z"/><path fill="#FFF" d="M30.66 30.538c-1.85-2.61-6.18-.11-4.32 2.52 3.19 4.51 5.87 9.25 7.91 14.38.84 2.09 4.23 2.65 4.83 0 2.83-12.6 8.21-27.17 20.68-33 2.91-1.36.38-5.67-2.52-4.32-11.43 5.35-17.68 17.36-21.23 29.25a70.837 70.837 0 00-5.35-8.83z"/><g fill="none" stroke="#000" stroke-linecap="round" stroke-linejoin="round" stroke-miterlimit="10" stroke-width="2"><path d="M53 22.642v30.476a.66.66 0 01-.66.66H20.66a.66.66 0 01-.66-.66v-31.68a.66.66 0 01.66-.66h20.649"/><path d="M30.66 30.538c-1.85-2.61-6.18-.11-4.32 2.52 3.19 4.51 5.87 9.25 7.91 14.38.84 2.09 4.23 2.65 4.83 0 2.83-12.6 8.21-27.17 20.68-33 2.91-1.36.38-5.67-2.52-4.32-11.43 5.35-17.68 17.36-21.23 29.25a70.837 70.837 0 00-5.35-8.83z"/></g></svg>
